X: 0
T: Glenfinlas
Z: Kenneth Finlay, 1882-1974
L: 1/4
M: 4/4
V: P1 name="Staff"
%%MIDI program 1 -1
K: F
[V: P1]  C F G A | (G3/ F/) D2 | C F G A | c4 | c d c A | G F A F | D2 (C D) | F4|]

